X:337
T:Reel 337
M:4/4
K:Emin
L:1/8
ef|gfed BdBG|FDAD FDDF|EFGF BAB^c|dBdB e2ef|gfef gfed|BdAG FDDF|EFGA Bgef|gfed Be|||||f2|gfeg fedf|edBd e2ef|gfga bgag|fedf e2ef|gfeg fgaf| (3gfe fd Bdef|gfge fgaf|gfed e2|
